ee/dtr/images/deploy-caches-3.svg

<?xml version="1.0" encoding="UTF-8"?>
<svg width="740px" height="250px" viewBox="0 0 740 250" version="1.1" xmlns="http://www.w3.org/2000/svg" xmlns:xlink="http://www.w3.org/1999/xlink" style="background: #FFFFFF;">
    <!-- Generator: Sketch 48.2 (47327) - http://www.bohemiancoding.com/sketch -->
    <title>cache-overview-3</title>
    <desc>Created with Sketch.</desc>
    <defs></defs>
    <g id="dtr-diagrams" stroke="none" stroke-width="1" fill="none" fill-rule="evenodd">
        <g id="cache-overview-3">
            <g id="all" transform="translate(10.000000, 3.000000)">
                <g id="prod" transform="translate(540.000000, 0.000000)">
                    <text id="DTR-at-prod.example." font-family="OpenSans-Semibold, Open Sans" font-size="12" font-weight="500" fill="#82949E">
                        <tspan x="9.025" y="234.009524">DTR at prod.example.org</tspan>
                    </text>
                    <rect id="group" stroke="#82949E" stroke-width="2" stroke-dasharray="5,5,5,5" x="0" y="0" width="180" height="245" rx="2"></rect>
                    <g id="user-1" transform="translate(14.000000, 78.000000)">
                        <g id="widgets" transform="translate(77.000000, 15.000000)" fill="#E0E4E7">
                            <path d="M75,11.3466667 L75,8.65333333 C73.6241667,8.16416667 72.755,8.02666667 72.3175,6.97083333 L72.3175,6.97 C71.8783333,5.91083333 72.4008333,5.19166667 73.0233333,3.88083333 L71.1191667,1.97666667 C69.8183333,2.595 69.0916667,3.1225 68.03,2.6825 L68.0291667,2.6825 C66.9716667,2.24416667 66.8333333,1.36916667 66.3466667,0 L63.6533333,0 C63.1683333,1.3625 63.0291667,2.24333333 61.9708333,2.6825 L61.97,2.6825 C60.9108333,3.1225 60.1933333,2.60083333 58.8808333,1.97666667 L56.9766667,3.88083333 C57.5975,5.1875 58.1225,5.90916667 57.6825,6.97 C57.2433333,8.02916667 56.3625,8.16833333 55,8.65333333 L55,11.3466667 C56.36,11.83 57.2433333,11.9708333 57.6825,13.0291667 C58.1241667,14.0975 57.5875,14.8341667 56.9766667,16.1183333 L58.8808333,18.0233333 C60.1825,17.4041667 60.9091667,16.8775 61.97,17.3175 L61.9708333,17.3175 C63.0291667,17.7558333 63.1675,18.6333333 63.6533333,20 L66.3466667,20 C66.8316667,18.6366667 66.9716667,17.7583333 68.0358333,17.315 L68.0366667,17.315 C69.0883333,16.8783333 69.8033333,17.3991667 71.1183333,18.0241667 L73.0225,16.1191667 C72.4025,14.8166667 71.8766667,14.0916667 72.3158333,13.0308333 C72.755,11.9716667 73.6391667,11.8308333 75,11.3466667 L75,11.3466667 Z M65,13.3333333 C63.1591667,13.3333333 61.6666667,11.8408333 61.6666667,10 C61.6666667,8.15916667 63.1591667,6.66666667 65,6.66666667 C66.8408333,6.66666667 68.3333333,8.15916667 68.3333333,10 C68.3333333,11.8408333 66.8408333,13.3333333 65,13.3333333 L65,13.3333333 Z" id="settings"></path>
                            <path d="M12.09,1 C4.5,1 0,10 0,10 C0,10 4.5,19 12.09,19 C19.5,19 24,10 24,10 C24,10 19.5,1 12.09,1 L12.09,1 Z M12,16 C8.7,16 6,13.33 6,10 C6,6.7 8.7,4 12,4 C15.33,4 18,6.7 18,10 C18,13.33 15.33,16 12,16 L12,16 Z M15,10 C15,11.665 13.665,13 12,13 C10.335,13 9,11.665 9,10 C9,8.335 10.335,7 12,7 C13.665,7 15,8.335 15,10 L15,10 Z" id="Shape"></path>
                            <path d="M31,15.0272045 L31,19 L34.9727791,19 L45.5668567,8.40587876 L41.5940776,4.4330833 L31,15.0272045 L31,15.0272045 Z M34.9727791,17.6757348 L32.3242597,17.6757348 L32.3242597,15.0272045 L33.6485194,15.0272045 L33.6485194,16.3514697 L34.9727791,16.3514697 L34.9727791,17.6757348 L34.9727791,17.6757348 Z M48.612654,5.36006891 L46.8911164,7.08161361 L42.9183373,3.10881814 L44.6398749,1.38727344 C44.8873057,1.13933381 45.2231988,1 45.573478,1 C45.9237573,1 46.2596503,1.13933381 46.5070811,1.38727344 L48.612654,3.49285504 C49.1291153,4.00931845 49.1291153,4.8436055 48.612654,5.36006891 L48.612654,5.36006891 Z" id="Shape"></path>
                        </g>
                        <text id="dev-team" font-family="OpenSans-Semibold, Open Sans" font-size="12" font-weight="500" fill="#82949E">
                            <tspan x="0" y="64">dev team</tspan>
                        </text>
                        <path d="M27,25 C33.90625,25 39.5,19.390625 39.5,12.5 C39.5,5.59375 33.90625,0 27,0 C20.09375,0 14.5,5.59375 14.5,12.5 C14.5,19.390625 20.09375,25 27,25 L27,25 Z M27,31.25 C18.671875,31.25 2,35.421875 2,43.75 L2,50 L52,50 L52,43.75 C52,35.421875 35.328125,31.25 27,31.25 L27,31.25 Z" id="user" stroke="#FFFFFF" stroke-width="2" fill="#82949E"></path>
                    </g>
                </g>
                <g id="qa" transform="translate(270.000000, 0.000000)">
                    <text id="DTR-at-qa.example.or" font-family="OpenSans-Semibold, Open Sans" font-size="12" font-weight="500" fill="#82949E">
                        <tspan x="9.025" y="234.009524">DTR at qa.example.org</tspan>
                    </text>
                    <rect id="group" stroke="#82949E" stroke-width="2" stroke-dasharray="5,5,5,5" x="0" y="0" width="180" height="245" rx="2"></rect>
                    <g id="user-1" transform="translate(14.000000, 78.000000)">
                        <g id="widgets" transform="translate(77.000000, 15.000000)">
                            <path d="M75,11.3466667 L75,8.65333333 C73.6241667,8.16416667 72.755,8.02666667 72.3175,6.97083333 L72.3175,6.97 C71.8783333,5.91083333 72.4008333,5.19166667 73.0233333,3.88083333 L71.1191667,1.97666667 C69.8183333,2.595 69.0916667,3.1225 68.03,2.6825 L68.0291667,2.6825 C66.9716667,2.24416667 66.8333333,1.36916667 66.3466667,0 L63.6533333,0 C63.1683333,1.3625 63.0291667,2.24333333 61.9708333,2.6825 L61.97,2.6825 C60.9108333,3.1225 60.1933333,2.60083333 58.8808333,1.97666667 L56.9766667,3.88083333 C57.5975,5.1875 58.1225,5.90916667 57.6825,6.97 C57.2433333,8.02916667 56.3625,8.16833333 55,8.65333333 L55,11.3466667 C56.36,11.83 57.2433333,11.9708333 57.6825,13.0291667 C58.1241667,14.0975 57.5875,14.8341667 56.9766667,16.1183333 L58.8808333,18.0233333 C60.1825,17.4041667 60.9091667,16.8775 61.97,17.3175 L61.9708333,17.3175 C63.0291667,17.7558333 63.1675,18.6333333 63.6533333,20 L66.3466667,20 C66.8316667,18.6366667 66.9716667,17.7583333 68.0358333,17.315 L68.0366667,17.315 C69.0883333,16.8783333 69.8033333,17.3991667 71.1183333,18.0241667 L73.0225,16.1191667 C72.4025,14.8166667 71.8766667,14.0916667 72.3158333,13.0308333 C72.755,11.9716667 73.6391667,11.8308333 75,11.3466667 L75,11.3466667 Z M65,13.3333333 C63.1591667,13.3333333 61.6666667,11.8408333 61.6666667,10 C61.6666667,8.15916667 63.1591667,6.66666667 65,6.66666667 C66.8408333,6.66666667 68.3333333,8.15916667 68.3333333,10 C68.3333333,11.8408333 66.8408333,13.3333333 65,13.3333333 L65,13.3333333 Z" id="settings" fill="#E0E4E7"></path>
                            <path d="M12.09,1 C4.5,1 0,10 0,10 C0,10 4.5,19 12.09,19 C19.5,19 24,10 24,10 C24,10 19.5,1 12.09,1 L12.09,1 Z M12,16 C8.7,16 6,13.33 6,10 C6,6.7 8.7,4 12,4 C15.33,4 18,6.7 18,10 C18,13.33 15.33,16 12,16 L12,16 Z M15,10 C15,11.665 13.665,13 12,13 C10.335,13 9,11.665 9,10 C9,8.335 10.335,7 12,7 C13.665,7 15,8.335 15,10 L15,10 Z" id="Shape" fill="#82949E"></path>
                            <path d="M31,15.0272045 L31,19 L34.9727791,19 L45.5668567,8.40587876 L41.5940776,4.4330833 L31,15.0272045 L31,15.0272045 Z M34.9727791,17.6757348 L32.3242597,17.6757348 L32.3242597,15.0272045 L33.6485194,15.0272045 L33.6485194,16.3514697 L34.9727791,16.3514697 L34.9727791,17.6757348 L34.9727791,17.6757348 Z M48.612654,5.36006891 L46.8911164,7.08161361 L42.9183373,3.10881814 L44.6398749,1.38727344 C44.8873057,1.13933381 45.2231988,1 45.573478,1 C45.9237573,1 46.2596503,1.13933381 46.5070811,1.38727344 L48.612654,3.49285504 C49.1291153,4.00931845 49.1291153,4.8436055 48.612654,5.36006891 L48.612654,5.36006891 Z" id="Shape" fill="#E0E4E7"></path>
                        </g>
                        <text id="dev-team" font-family="OpenSans-Semibold, Open Sans" font-size="12" font-weight="500" fill="#82949E">
                            <tspan x="0" y="64">dev team</tspan>
                        </text>
                        <path d="M27,25 C33.90625,25 39.5,19.390625 39.5,12.5 C39.5,5.59375 33.90625,0 27,0 C20.09375,0 14.5,5.59375 14.5,12.5 C14.5,19.390625 20.09375,25 27,25 L27,25 Z M27,31.25 C18.671875,31.25 2,35.421875 2,43.75 L2,50 L52,50 L52,43.75 C52,35.421875 35.328125,31.25 27,31.25 L27,31.25 Z" id="user" stroke="#FFFFFF" stroke-width="2" fill="#82949E"></path>
                    </g>
                </g>
                <g id="arrow-2" transform="translate(462.000000, 101.000000)">
                    <circle id="Oval" fill="#E0E4E7" cx="63" cy="38" r="4"></circle>
                    <path d="M0,38 C0,38 10.5912352,29.1094681 32.0154397,29.1094681 C53.4396442,29.1094681 64.0308794,38 64.0308794,38" id="Path-3" stroke="#E0E4E7" stroke-width="2" stroke-linecap="round" stroke-linejoin="round"></path>
                    <text id="promote" font-family="OpenSans-Semibold, Open Sans" font-size="14" font-weight="500" fill="#E0E4E7">
                        <tspan x="4" y="15">promote</tspan>
                    </text>
                </g>
                <g id="dev">
                    <text id="DTR-at-dev.example.o" font-family="OpenSans-Semibold, Open Sans" font-size="12" font-weight="500" fill="#82949E">
                        <tspan x="8.025" y="234.009524">DTR at dev.example.org</tspan>
                    </text>
                    <rect id="group" stroke="#82949E" stroke-width="2" stroke-dasharray="5,5,5,5" x="0" y="0" width="180" height="245" rx="2"></rect>
                    <g id="user-1" transform="translate(14.000000, 78.000000)">
                        <g id="widgets" transform="translate(77.000000, 15.000000)">
                            <path d="M75,11.3466667 L75,8.65333333 C73.6241667,8.16416667 72.755,8.02666667 72.3175,6.97083333 L72.3175,6.97 C71.8783333,5.91083333 72.4008333,5.19166667 73.0233333,3.88083333 L71.1191667,1.97666667 C69.8183333,2.595 69.0916667,3.1225 68.03,2.6825 L68.0291667,2.6825 C66.9716667,2.24416667 66.8333333,1.36916667 66.3466667,0 L63.6533333,0 C63.1683333,1.3625 63.0291667,2.24333333 61.9708333,2.6825 L61.97,2.6825 C60.9108333,3.1225 60.1933333,2.60083333 58.8808333,1.97666667 L56.9766667,3.88083333 C57.5975,5.1875 58.1225,5.90916667 57.6825,6.97 C57.2433333,8.02916667 56.3625,8.16833333 55,8.65333333 L55,11.3466667 C56.36,11.83 57.2433333,11.9708333 57.6825,13.0291667 C58.1241667,14.0975 57.5875,14.8341667 56.9766667,16.1183333 L58.8808333,18.0233333 C60.1825,17.4041667 60.9091667,16.8775 61.97,17.3175 L61.9708333,17.3175 C63.0291667,17.7558333 63.1675,18.6333333 63.6533333,20 L66.3466667,20 C66.8316667,18.6366667 66.9716667,17.7583333 68.0358333,17.315 L68.0366667,17.315 C69.0883333,16.8783333 69.8033333,17.3991667 71.1183333,18.0241667 L73.0225,16.1191667 C72.4025,14.8166667 71.8766667,14.0916667 72.3158333,13.0308333 C72.755,11.9716667 73.6391667,11.8308333 75,11.3466667 L75,11.3466667 Z M65,13.3333333 C63.1591667,13.3333333 61.6666667,11.8408333 61.6666667,10 C61.6666667,8.15916667 63.1591667,6.66666667 65,6.66666667 C66.8408333,6.66666667 68.3333333,8.15916667 68.3333333,10 C68.3333333,11.8408333 66.8408333,13.3333333 65,13.3333333 L65,13.3333333 Z" id="settings" fill="#E0E4E7"></path>
                            <path d="M12.09,1 C4.5,1 0,10 0,10 C0,10 4.5,19 12.09,19 C19.5,19 24,10 24,10 C24,10 19.5,1 12.09,1 L12.09,1 Z M12,16 C8.7,16 6,13.33 6,10 C6,6.7 8.7,4 12,4 C15.33,4 18,6.7 18,10 C18,13.33 15.33,16 12,16 L12,16 Z M15,10 C15,11.665 13.665,13 12,13 C10.335,13 9,11.665 9,10 C9,8.335 10.335,7 12,7 C13.665,7 15,8.335 15,10 L15,10 Z" id="Shape" fill="#82949E"></path>
                            <path d="M31,15.0272045 L31,19 L34.9727791,19 L45.5668567,8.40587876 L41.5940776,4.4330833 L31,15.0272045 L31,15.0272045 Z M34.9727791,17.6757348 L32.3242597,17.6757348 L32.3242597,15.0272045 L33.6485194,15.0272045 L33.6485194,16.3514697 L34.9727791,16.3514697 L34.9727791,17.6757348 L34.9727791,17.6757348 Z M48.612654,5.36006891 L46.8911164,7.08161361 L42.9183373,3.10881814 L44.6398749,1.38727344 C44.8873057,1.13933381 45.2231988,1 45.573478,1 C45.9237573,1 46.2596503,1.13933381 46.5070811,1.38727344 L48.612654,3.49285504 C49.1291153,4.00931845 49.1291153,4.8436055 48.612654,5.36006891 L48.612654,5.36006891 Z" id="Shape" fill="#82949E"></path>
                        </g>
                        <text id="dev-team" font-family="OpenSans-Semibold, Open Sans" font-size="12" font-weight="500" fill="#82949E">
                            <tspan x="0" y="64">dev team</tspan>
                        </text>
                        <path d="M27,25 C33.90625,25 39.5,19.390625 39.5,12.5 C39.5,5.59375 33.90625,0 27,0 C20.09375,0 14.5,5.59375 14.5,12.5 C14.5,19.390625 20.09375,25 27,25 L27,25 Z M27,31.25 C18.671875,31.25 2,35.421875 2,43.75 L2,50 L52,50 L52,43.75 C52,35.421875 35.328125,31.25 27,31.25 L27,31.25 Z" id="user" stroke="#FFFFFF" stroke-width="2" fill="#82949E"></path>
                    </g>
                </g>
                <g id="arrow-1" transform="translate(193.000000, 101.000000)">
                    <circle id="Oval" fill="#E0E4E7" cx="63" cy="38" r="4"></circle>
                    <path d="M0,38 C0,38 10.5912352,29.1094681 32.0154397,29.1094681 C53.4396442,29.1094681 64.0308794,38 64.0308794,38" id="Path-3" stroke="#E0E4E7" stroke-width="2" stroke-linecap="round" stroke-linejoin="round"></path>
                    <text id="promote" font-family="OpenSans-Semibold, Open Sans" font-size="14" font-weight="500" fill="#E0E4E7">
                        <tspan x="4" y="15">promote</tspan>
                    </text>
                </g>
            </g>
        </g>
    </g>
</svg>

<?xml version="1.0" encoding="utf-8"?>
<!-- Generator: Adobe Illustrator 23.0.1, SVG Export Plug-In . SVG Version: 6.00 Build 0)  -->
<svg version="1.1" id="Layer_1" xmlns="http://www.w3.org/2000/svg" xmlns:xlink="http://www.w3.org/1999/xlink" x="0px" y="0px"
	 viewBox="0 0 740 250" style="enable-background:new 0 0 740 250;" xml:space="preserve">
<style type="text/css">
	.st0{fill:#FFFFFF;}
	.st1{font-family:'OpenSans';}
	.st2{font-size:12px;}
	.st3{fill:none;stroke:#82949E;stroke-width:2;stroke-dasharray:5,5,5,5;}
	.st4{fill-rule:evenodd;clip-rule:evenodd;fill:#E0E4E7;}
	.st5{fill:#82949E;}
	.st6{fill-rule:evenodd;clip-rule:evenodd;fill:#82949E;stroke:#FFFFFF;stroke-width:2;}
	.st7{fill-rule:evenodd;clip-rule:evenodd;fill:#82949E;}
	.st8{fill:none;stroke:#E0E4E7;stroke-width:2;stroke-linecap:round;stroke-linejoin:round;}
	.st9{fill:#E0E4E7;}
	.st10{font-size:14px;}
</style>
<rect class="st0" width="740" height="250"/>
<title>cache-overview-3</title>
<desc>Created with Sketch.</desc>
<g id="dtr-diagrams">
	<g id="cache-overview-3">
		<g id="all" transform="translate(10.000000, 3.000000)">
			<g id="prod" transform="translate(540.000000, 0.000000)">
				<text transform="matrix(1 0 0 1 9.025 234.0095)" class="st0 st1 st2">DTR at prod.example.org</text>
				<path id="group" class="st3" d="M2,0h176c1.1,0,2,0.9,2,2v241c0,1.1-0.9,2-2,2H2c-1.1,0-2-0.9-2-2V2C0,0.9,0.9,0,2,0z"/>
				<g id="user-1" transform="translate(14.000000, 78.000000)">
					<g id="widgets" transform="translate(77.000000, 15.000000)">
						<path id="settings" class="st4" d="M75,11.3V8.7C73.6,8.2,72.8,8,72.3,7v0c-0.4-1.1,0.1-1.8,0.7-3.1L71.1,2
							c-1.3,0.6-2,1.1-3.1,0.7h0C67,2.2,66.8,1.4,66.3,0h-2.7C63.2,1.4,63,2.2,62,2.7h0c-1.1,0.4-1.8-0.1-3.1-0.7L57,3.9
							c0.6,1.3,1.1,2,0.7,3.1C57.2,8,56.4,8.2,55,8.7v2.7c1.4,0.5,2.2,0.6,2.7,1.7c0.4,1.1-0.1,1.8-0.7,3.1l1.9,1.9
							c1.3-0.6,2-1.1,3.1-0.7h0c1.1,0.4,1.2,1.3,1.7,2.7h2.7c0.5-1.4,0.6-2.2,1.7-2.7h0c1.1-0.4,1.8,0.1,3.1,0.7l1.9-1.9
							c-0.6-1.3-1.1-2-0.7-3.1C72.8,12,73.6,11.8,75,11.3L75,11.3z M65,13.3c-1.8,0-3.3-1.5-3.3-3.3s1.5-3.3,3.3-3.3
							c1.8,0,3.3,1.5,3.3,3.3S66.8,13.3,65,13.3L65,13.3z"/>
						<path id="Shape" class="st4" d="M12.1,1C4.5,1,0,10,0,10s4.5,9,12.1,9c7.4,0,11.9-9,11.9-9S19.5,1,12.1,1L12.1,1z M12,16
							c-3.3,0-6-2.7-6-6c0-3.3,2.7-6,6-6c3.3,0,6,2.7,6,6C18,13.3,15.3,16,12,16L12,16z M15,10c0,1.7-1.3,3-3,3s-3-1.3-3-3
							s1.3-3,3-3S15,8.3,15,10L15,10z"/>
						<path class="st4" d="M31,15v4h4L45.6,8.4l-4-4L31,15L31,15z M35,17.7h-2.6V15h1.3v1.3H35V17.7L35,17.7z M48.6,5.4l-1.7,1.7
							l-4-4l1.7-1.7C44.9,1.1,45.2,1,45.6,1c0.4,0,0.7,0.1,0.9,0.4l2.1,2.1C49.1,4,49.1,4.8,48.6,5.4L48.6,5.4z"/>
					</g>
					<text transform="matrix(1 0 0 1 0 64)" class="st5 st1 st2">dev team</text>
					<path id="user" class="st6" d="M27,25c6.9,0,12.5-5.6,12.5-12.5C39.5,5.6,33.9,0,27,0S14.5,5.6,14.5,12.5
						C14.5,19.4,20.1,25,27,25L27,25z M27,31.2c-8.3,0-25,4.2-25,12.5V50h50v-6.2C52,35.4,35.3,31.2,27,31.2L27,31.2z"/>
				</g>
			</g>
			<g id="qa" transform="translate(270.000000, 0.000000)">
				<text transform="matrix(1 0 0 1 9.025 234.0095)" class="st5 st1 st2">DTR at qa.example.org</text>
				<path class="st3" d="M2,0h176c1.1,0,2,0.9,2,2v241c0,1.1-0.9,2-2,2H2c-1.1,0-2-0.9-2-2V2C0,0.9,0.9,0,2,0z"/>
				<g transform="translate(14.000000, 78.000000)">
					<g transform="translate(77.000000, 15.000000)">
						<path class="st4" d="M75,11.3V8.7C73.6,8.2,72.8,8,72.3,7v0c-0.4-1.1,0.1-1.8,0.7-3.1L71.1,2c-1.3,0.6-2,1.1-3.1,0.7h0
							C67,2.2,66.8,1.4,66.3,0h-2.7C63.2,1.4,63,2.2,62,2.7h0c-1.1,0.4-1.8-0.1-3.1-0.7L57,3.9c0.6,1.3,1.1,2,0.7,3.1
							C57.2,8,56.4,8.2,55,8.7v2.7c1.4,0.5,2.2,0.6,2.7,1.7c0.4,1.1-0.1,1.8-0.7,3.1l1.9,1.9c1.3-0.6,2-1.1,3.1-0.7h0
							c1.1,0.4,1.2,1.3,1.7,2.7h2.7c0.5-1.4,0.6-2.2,1.7-2.7h0c1.1-0.4,1.8,0.1,3.1,0.7l1.9-1.9c-0.6-1.3-1.1-2-0.7-3.1
							C72.8,12,73.6,11.8,75,11.3L75,11.3z M65,13.3c-1.8,0-3.3-1.5-3.3-3.3s1.5-3.3,3.3-3.3c1.8,0,3.3,1.5,3.3,3.3
							S66.8,13.3,65,13.3L65,13.3z"/>
						<path class="st7" d="M12.1,1C4.5,1,0,10,0,10s4.5,9,12.1,9c7.4,0,11.9-9,11.9-9S19.5,1,12.1,1L12.1,1z M12,16
							c-3.3,0-6-2.7-6-6c0-3.3,2.7-6,6-6c3.3,0,6,2.7,6,6C18,13.3,15.3,16,12,16L12,16z M15,10c0,1.7-1.3,3-3,3s-3-1.3-3-3
							s1.3-3,3-3S15,8.3,15,10L15,10z"/>
						<path class="st4" d="M31,15v4h4L45.6,8.4l-4-4L31,15L31,15z M35,17.7h-2.6V15h1.3v1.3H35V17.7L35,17.7z M48.6,5.4l-1.7,1.7
							l-4-4l1.7-1.7C44.9,1.1,45.2,1,45.6,1c0.4,0,0.7,0.1,0.9,0.4l2.1,2.1C49.1,4,49.1,4.8,48.6,5.4L48.6,5.4z"/>
					</g>
					<text transform="matrix(1 0 0 1 0 64)" class="st5 st1 st2">dev team</text>
					<path class="st6" d="M27,25c6.9,0,12.5-5.6,12.5-12.5C39.5,5.6,33.9,0,27,0S14.5,5.6,14.5,12.5C14.5,19.4,20.1,25,27,25L27,25z
						 M27,31.2c-8.3,0-25,4.2-25,12.5V50h50v-6.2C52,35.4,35.3,31.2,27,31.2L27,31.2z"/>
				</g>
			</g>
			<g id="arrow-2" transform="translate(462.000000, 101.000000)">
				<circle id="Oval" class="st4" cx="63" cy="38" r="4"/>
				<path id="Path-3" class="st8" d="M0,38c0,0,10.6-8.9,32-8.9S64,38,64,38"/>
				<text transform="matrix(1 0 0 1 4 15)" class="st9 st1 st10">promote</text>
			</g>
			<g id="dev">
				<text transform="matrix(1 0 0 1 8.025 234.0095)" class="st5 st1 st2">DTR at dev.example.org</text>
				<path class="st3" d="M2,0h176c1.1,0,2,0.9,2,2v241c0,1.1-0.9,2-2,2H2c-1.1,0-2-0.9-2-2V2C0,0.9,0.9,0,2,0z"/>
				<g transform="translate(14.000000, 78.000000)">
					<g transform="translate(77.000000, 15.000000)">
						<path class="st4" d="M75,11.3V8.7C73.6,8.2,72.8,8,72.3,7v0c-0.4-1.1,0.1-1.8,0.7-3.1L71.1,2c-1.3,0.6-2,1.1-3.1,0.7h0
							C67,2.2,66.8,1.4,66.3,0h-2.7C63.2,1.4,63,2.2,62,2.7h0c-1.1,0.4-1.8-0.1-3.1-0.7L57,3.9c0.6,1.3,1.1,2,0.7,3.1
							C57.2,8,56.4,8.2,55,8.7v2.7c1.4,0.5,2.2,0.6,2.7,1.7c0.4,1.1-0.1,1.8-0.7,3.1l1.9,1.9c1.3-0.6,2-1.1,3.1-0.7h0
							c1.1,0.4,1.2,1.3,1.7,2.7h2.7c0.5-1.4,0.6-2.2,1.7-2.7h0c1.1-0.4,1.8,0.1,3.1,0.7l1.9-1.9c-0.6-1.3-1.1-2-0.7-3.1
							C72.8,12,73.6,11.8,75,11.3L75,11.3z M65,13.3c-1.8,0-3.3-1.5-3.3-3.3s1.5-3.3,3.3-3.3c1.8,0,3.3,1.5,3.3,3.3
							S66.8,13.3,65,13.3L65,13.3z"/>
						<path class="st7" d="M12.1,1C4.5,1,0,10,0,10s4.5,9,12.1,9c7.4,0,11.9-9,11.9-9S19.5,1,12.1,1L12.1,1z M12,16
							c-3.3,0-6-2.7-6-6c0-3.3,2.7-6,6-6c3.3,0,6,2.7,6,6C18,13.3,15.3,16,12,16L12,16z M15,10c0,1.7-1.3,3-3,3s-3-1.3-3-3
							s1.3-3,3-3S15,8.3,15,10L15,10z"/>
						<path class="st7" d="M31,15v4h4L45.6,8.4l-4-4L31,15L31,15z M35,17.7h-2.6V15h1.3v1.3H35V17.7L35,17.7z M48.6,5.4l-1.7,1.7
							l-4-4l1.7-1.7C44.9,1.1,45.2,1,45.6,1c0.4,0,0.7,0.1,0.9,0.4l2.1,2.1C49.1,4,49.1,4.8,48.6,5.4L48.6,5.4z"/>
					</g>
					<text transform="matrix(1 0 0 1 0 64)" class="st5 st1 st2">dev team</text>
					<path class="st6" d="M27,25c6.9,0,12.5-5.6,12.5-12.5C39.5,5.6,33.9,0,27,0S14.5,5.6,14.5,12.5C14.5,19.4,20.1,25,27,25L27,25z
						 M27,31.2c-8.3,0-25,4.2-25,12.5V50h50v-6.2C52,35.4,35.3,31.2,27,31.2L27,31.2z"/>
				</g>
			</g>
			<g id="arrow-1" transform="translate(193.000000, 101.000000)">
				<circle class="st4" cx="63" cy="38" r="4"/>
				<path class="st8" d="M0,38c0,0,10.6-8.9,32-8.9S64,38,64,38"/>
				<text transform="matrix(1 0 0 1 4 15)" class="st9 st1 st10">promote</text>
			</g>
		</g>
	</g>
</g>
</svg>
